!!!COM: Gustav Mahler
!!!CNT: Deutsch
!!!TXO: Deutsch
!!!OTL: "Ich hab' ein glu2hend Messer"
!!!LYR: Gustav Mahler
!!!OPR: Lieder eines fahrenden Gesellen
!!!ENC: O'Neal Douglas
!!!YOR: CD Sheet Music: Late Romantic German Lieder
!!!YOR: CD Sheet Music, LLC, 2001
!!!ODT: 1885/
!!NB: Vocal melody and text encoded.
**kern	**text
*staff1	*staff1
=1-	=1-
*clefG2	*
*k[b-]	*
*M9/8	*
*MM180	*
4.r	.
4.r	.
4.r	.
=5	=5
4r	.
{8c#	{Ich
4d	hab'
8e	ein
4f	glu2-
8g	-hend
=6	=6
4.a	Mes-
8a	-ser,
8r	.
8r	.
4r	.
8dd	ein
=7	=7
4.ff	Mes-
8ff	-ser
8r	.
8ee	in
4dd	mei-
8cc	-ner
=8	=8
4.b-}	Brust}
4r	.
8r	.
{4.a	{o
=9	=9
[4.g#	weh!
8g#]	|
8r	.
8r	.
4.b-	O
=10	=10
[4.a	weh!
8a]	|
8r	.
8e	Das
8g	schneid't
8r	.
8f	so
=11	=11
4.e}	tief}
4r	.
8r	.
4r	.
8r	.
=12	=12
4r	.
{8c#	{in
4d	je-
8e	-de
4f	Freud'
8g	und
=13	=13
4a	je-
8dd	-de
[2.ff	Lust,
=14	=14
4.ff]	|
4r	.
8r	.
4.ee	so
=15	=15
[4.dd	tief!
4dd]	|
8r	.
4.cc#	So
=16	=16
[4.cc	tief!
8cc]	|
8r	.
8b-	Es
4a	schneid't
8g	so
=17	=17
4f	weh
8g	und
4.a}	tief!}
4r	.
8r	.
=18	=18
4r	.
{8d	{Ach,
4d	was
8d	ist
8d	das
8d	fu2r
8d	ein
=19	=19
4g	bo2-
8g	-ser
4.g}	Gast!}
4r	.
8r	.
=20	=20
4r	.
{8d	{Ach,
4d	was
8d	ist
8d	das
8d	fu2r
8d	ein
=21	=21
4a	bo2-
8a	-ser
4.a}	Gast!}
4r	.
8r	.
=22	=22
{4dd	{Nim-
8cc#	-mer
4a	ha2lt
8bn	er
4.ccn	Ruh',
=23	=23
4bn	nim-
8b-	-mer
4f#	ha2lt
8g	er
4.a}	Rast!}
=24	=24
4.r	.
4.r	.
4.r	.
=25	=25
4.r	.
4.r	.
4.r	.
=26	=26
{2.gg	{Nicht
4.gg	bei
=27	=27
[4.gg	Tag,
8gg]	|
8ff#	nicht
8ffn	bei
8ee	Nacht,
8ee-	wenn
8dd	ich
=28	=28
[4.cc#	schlief!
8cc#]	|
8r	.
8r	.
4.dd	O
=29	=29
[4.cc#	weh!
8cc#]	|
8r	.
8r	.
4.dd	O
=30	=30
[4.cc#	weh!
8cc#]}	|}
8r	.
8r	.
4r	.
8r	.
=40	=40
4r	.
8r	.
4r	.
8r	.
{4.ee-	{O
=41	=41
2.dd}	weh!}
4r	.
8r	.
=46	=46
4r	.
8r	.
{4g	{Wenn
8g	ich
4g	in
8g	den
=47	=47
4cc	Him-
8cc	-mel
4.cc	seh,
4r	.
8r	.
=48	=48
4r	.
8r	.
8g	seh'
8g	ich
8g	zwei
4g	blau-
8g	-e
=49	=49
4dd-	Au-
8dd-	-gen
4.dd-}	steh'n!}
4r	.
8r	.
=50	=50
4r	.
8r	.
{4.ee-	{O
4.dd	weh!
=51	=51
4r	.
8r	.
4.cc	O
4.b-}	weh!}
=52	=52
4.r	.
4.r	.
4.r	.
=53	=53
4r	.
8r	.
{8g	{Wenn
8g	ich
8g	im
4g	gel-
8g	-ben
=54	=54
4cc	Fel-
8cc	-de
4.cc}	geh'}
4r	.
8r	.
=55	=55
4r	.
8r	.
{8g	{seh'
8g	ich
8g	von
4g	Fern
8g	das
=56	=56
4dd	blon-
8dd	-de
4dd	Haar
8r	.
4r	.
8cc	im
=57	=57
4bn	Win-
8b	-de
4b	weh'n!
8r	.
4r	.
8cc	O
=58	=58
2.bn	weh!
4.cc	O
=59	=59
[2.bn	weh!
4b]}	|}
8r	.
=60	=60
4r	.
8r	.
8r	.
{8e	{Wenn
8f#	ich
(8g	aus
8a)	|
8bn	dem
=61	=61
4cc#	Traum
8cc#	auf-
2.cc#}	-fahr'}
=62	=62
*M4/4	*
4r	.
{4dd	{und
8cc#	ho2-
8cc#	-re
4r	.
=63	=63
8dd#	klin-
8dd#	-gen
4r	.
4r	.
4ff#	ihr
=64	=64
8ee#	sil-
8ee#	-bern
8ee#	La-
8ee#}	-chen}
2r	.
=65	=65
4r	.
{4gg-	{o
2ff	weh!
=66	=66
4r	.
4gg-	O
2ff}	weh!}
=67	=67
1r	.
=68	=68
4r	.
8r	.
{8b-	{Ich
[2gg-	wollt'
=69	=69
4gg-]	|
4ff	ich
4ee-	la2g'
8dd-	auf
8dd-	der
=70	=70
2.cc-	schwar-
4b-	-zen
=71	=71
2a-}	Bahr',}
4r	.
{4g-	{ko2nnt'
=72	=72
4f	nim-
8e-	-mer,
8r	.
[2a-	nim-
=73	=73
6a-]	|
6g-	-mer
6f	die
6e-	Au-
6d-	-gen
6c-	auf-
=74	=74
4c-	-ma-
4B-}	-chen!}
2r	.
=75	=75
1r	.
=76	=76
1r	.
=77	=77
1r	.
=78	=78
1r	.
=79	=79
1r	.
=80	=80
1r	.
==	==
*-	*-
